img/benefit2-icons/img2.svg

<svg width="40" height="40" viewBox="0 0 40 40" fill="none" xmlns="http://www.w3.org/2000/svg">
<g clip-path="url(#clip0_257_14973)">
<path d="M39.5947 8.65116L24.0161 0.0967713C23.782 -0.0317078 23.4982 -0.0317078 23.2641 0.0967713L17.3922 3.32095C17.2683 3.35361 17.1527 3.41586 17.0569 3.50528L7.68582 8.65116C7.43588 8.78818 7.28054 9.05063 7.28054 9.33597V19.682C5.69973 20.1764 4.25106 21.0483 3.04653 22.2532C-0.0931158 25.3925 -0.893592 30.1807 1.05465 34.1678C1.24386 34.5554 1.71169 34.7162 2.09927 34.5267C2.48715 34.3372 2.64767 33.8694 2.45846 33.4818C0.803186 30.094 1.48342 26.0257 4.15127 23.3579C5.81967 21.6895 8.03769 20.7706 10.397 20.7706C12.7563 20.7706 14.9743 21.6895 16.6427 23.3579C18.3108 25.026 19.2297 27.244 19.2297 29.6033C19.2297 31.9626 18.3108 34.1806 16.6424 35.849C13.9746 38.5169 9.90628 39.1971 6.51852 37.5419C6.13095 37.3523 5.66311 37.5132 5.4739 37.9007C5.28439 38.2886 5.44491 38.7565 5.83279 38.9457C7.28512 39.6555 8.84335 40.0004 10.3903 40.0004C13.089 40 15.7516 38.9496 17.7475 36.9538C18.6627 36.0386 19.386 34.9827 19.8977 33.8349L23.2641 35.6833C23.3813 35.7477 23.5107 35.7798 23.6401 35.7798C23.7695 35.7798 23.8992 35.7477 24.0161 35.6833L39.5947 27.1293C39.8446 26.9919 40 26.7295 40 26.4444V21.0151C40 20.5835 39.6502 20.2338 39.2187 20.2338C38.7872 20.2338 38.4375 20.5835 38.4375 21.0151V25.9821L24.4238 33.6771V18.3512L29.0487 15.8115V19.8374C29.0487 20.1139 29.1946 20.3696 29.4323 20.51C29.555 20.5823 29.6924 20.6186 29.83 20.6186C29.9594 20.6186 30.0891 20.5866 30.2066 20.5219L33.5449 18.6844C33.7945 18.5471 33.9493 18.285 33.9493 18.0002V13.1205L38.4375 10.6562V14.7654C38.4375 15.1969 38.7872 15.5466 39.2187 15.5466C39.6502 15.5466 40 15.1969 40 14.7654V9.33597C40 9.05094 39.8446 8.78818 39.5947 8.65116ZM23.6401 1.6727L37.5955 9.33597L33.1933 11.7533L19.2379 4.09L23.6401 1.6727ZM23.6401 16.9989L9.68472 9.33597L14.2483 6.82987L28.204 14.4928L23.6401 16.9989ZM29.8269 13.6017L15.8715 5.93875L17.6147 4.98142L31.5704 12.6444L29.8269 13.6017ZM17.7475 22.2532C15.784 20.2896 13.1735 19.2084 10.397 19.2084C9.87179 19.2084 9.35299 19.2472 8.84304 19.3232V10.6562L22.8616 18.3539V33.6799L20.4284 32.3438C20.668 31.4618 20.7919 30.542 20.7919 29.6033C20.7919 26.8268 19.7107 24.2163 17.7475 22.2532ZM32.3871 17.5385L30.6112 18.516V14.9536L32.3871 13.9786V17.5385Z" fill="#0383FD"/>
<path d="M39.2188 17.1048C39.0134 17.1048 38.8116 17.1884 38.6664 17.3337C38.5211 17.4789 38.4375 17.6804 38.4375 17.886C38.4375 18.0914 38.5211 18.2928 38.6664 18.4381C38.8116 18.5837 39.0134 18.667 39.2188 18.667C39.4241 18.667 39.6259 18.5837 39.7711 18.4381C39.9164 18.2928 40 18.0914 40 17.886C40 17.6804 39.9164 17.4789 39.7711 17.3337C39.6259 17.1884 39.4241 17.1048 39.2188 17.1048Z" fill="#0383FD"/>
<path d="M7.77028 30.3842C7.97017 30.3842 8.17037 30.3079 8.32265 30.1556C8.62782 29.8505 8.62782 29.3558 8.32265 29.0506L7.78157 28.5092H12.3989C13.5189 28.5092 14.4301 29.4205 14.4301 30.5405C14.4301 31.6605 13.5189 32.5717 12.3989 32.5717H9.66298C9.23146 32.5717 8.88173 32.9215 8.88173 33.353C8.88173 33.7842 9.23146 34.1339 9.66298 34.1339H12.3989C14.3804 34.1339 15.9926 32.522 15.9926 30.5405C15.9926 28.559 14.3804 26.947 12.3989 26.947H7.78157L8.32265 26.4056C8.62782 26.1005 8.62782 25.6058 8.32265 25.3006C8.01778 24.9957 7.52309 24.9957 7.21791 25.3006L5.34291 27.1756C5.03804 27.4808 5.03804 27.9755 5.34291 28.2806L7.21791 30.1553C7.3705 30.3079 7.57039 30.3842 7.77028 30.3842Z" fill="#0383FD"/>
<path d="M3.59961 37.1835C3.37744 37.1835 3.1568 37.0889 3.00268 36.9055L3.00116 36.9037C2.72345 36.5735 2.76617 36.0809 3.09637 35.8032C3.42657 35.5252 3.91943 35.5679 4.19714 35.8981C4.47455 36.2286 4.43274 36.7221 4.10254 36.9998C3.95575 37.1231 3.77722 37.1835 3.59961 37.1835Z" fill="#0383FD"/>
</g>
<defs>
<clipPath id="clip0_257_14973">
<rect width="40" height="40" fill="white"/>
</clipPath>
</defs>
</svg>

<svg width="40" height="40" fill="none" xmlns="http://www.w3.org/2000/svg"><g clip-path="url(#clip0_257_14973)" fill="#0383FD"><path d="M39.595 8.651L24.016.097a.782.782 0 00-.752 0L17.392 3.32a.783.783 0 00-.335.184L7.686 8.651a.78.78 0 00-.405.685v10.346a10.341 10.341 0 00-4.234 2.571 10.397 10.397 0 00-1.992 11.915.78.78 0 101.403-.686 8.835 8.835 0 011.693-10.124 8.775 8.775 0 016.246-2.587c2.36 0 4.577.918 6.246 2.587a8.775 8.775 0 012.587 6.245c0 2.36-.92 4.578-2.588 6.246A8.835 8.835 0 016.52 37.542a.78.78 0 10-.686 1.404 10.4 10.4 0 0011.915-1.992 10.391 10.391 0 002.15-3.12l3.366 1.85a.78.78 0 00.752 0l15.579-8.555c.25-.137.405-.4.405-.685v-5.429a.781.781 0 10-1.563 0v4.967l-14.013 7.695V18.351l4.625-2.54v4.026a.781.781 0 001.158.685l3.338-1.838A.78.78 0 0033.95 18v-4.88l4.489-2.464v4.11a.781.781 0 101.562 0v-5.43a.781.781 0 00-.405-.685zM23.64 1.673l13.956 7.663-4.403 2.417L19.238 4.09l4.402-2.417zm0 15.326L9.685 9.336l4.563-2.506 13.956 7.663-4.564 2.506zm6.187-3.397L15.87 5.939l1.744-.958 13.955 7.663-1.743.958zm-12.08 8.651a10.327 10.327 0 00-7.35-3.045c-.525 0-1.044.04-1.554.115v-8.667l14.019 7.698V33.68l-2.434-1.336c.24-.882.364-1.802.364-2.74a10.32 10.32 0 00-3.045-7.35zm14.64-4.715l-1.776.978v-3.562l1.776-.975v3.56z"/><path d="M39.219 17.105a.787.787 0 00-.553.229.787.787 0 00-.228.552c0 .205.083.407.228.552a.786.786 0 00.553.229.786.786 0 00.552-.229.787.787 0 00.229-.552.787.787 0 00-.229-.552.787.787 0 00-.552-.23zM7.77 30.384a.781.781 0 00.552-1.334l-.54-.54h4.617c1.12 0 2.031.91 2.031 2.03 0 1.12-.911 2.032-2.031 2.032H9.663a.781.781 0 100 1.562h2.736a3.598 3.598 0 003.594-3.593 3.598 3.598 0 00-3.594-3.594H7.782l.54-.541A.781.781 0 007.219 25.3l-1.875 1.875a.782.782 0 000 1.105l1.875 1.874a.779.779 0 00.552.23zm-4.17 6.8a.778.778 0 01-.597-.278L3 36.904a.781.781 0 11.599.28z"/></g><defs><clipPath id="clip0_257_14973"><path fill="#fff" d="M0 0h40v40H0z"/></clipPath></defs></svg>
